X:380
T: Katharina und ihre Freier (4-79), S. 101
N: P0650
O: Lothringen
S: PINCK, Louis: Verklingende Weisen Bd 4, Kassel 1939]
R: ???, Liebe, Suche nach Brutigam]
M: 3/4
L: 1/16
K: G
D4 | G4E4A2B2 | A4G4B2d2 | c4A4D4 | G4z4
D4 | G4E4A2B2 | A4G4B2d2 | c4A4D4 | G4z4
G2A2 | B4G4B2d2 | c4z4B4 | B2A2G4A4 | D4z4
D2F2 | G3FE4A3B | A3GG4B2d2 | c4A4D4 | G4z4

@@@ Tune index: 7930
